Newaita-dark/apps/24/com.github.artemanufrij.webpin.svg

<svg height="24pt" viewBox="0 0 24 24" width="24pt" xmlns="http://www.w3.org/2000/svg" xmlns:xlink="http://www.w3.org/1999/xlink"><linearGradient id="a"><stop offset="0" stop-opacity=".313725"/><stop offset=".222222" stop-opacity=".27451"/><stop offset="1" stop-opacity="0"/></linearGradient><radialGradient id="b" cx="450.90894" cy="189.57936" gradientTransform="matrix(.00000013 -.0585994 -.105479 -.00000008 37.609564 48.192643)" gradientUnits="userSpaceOnUse" r="21.166656" xlink:href="#a"/><radialGradient id="c" cx="450.90894" cy="189.57936" gradientTransform="matrix(-.00000013 .0585994 .105479 .00000008 -14.787071 -5.149467)" gradientUnits="userSpaceOnUse" r="21.166656" xlink:href="#a"/><radialGradient id="d" cx="450.90894" cy="189.57936" gradientTransform="matrix(-.00000013 -.0585994 .105479 -.00000008 -14.787071 48.192643)" gradientUnits="userSpaceOnUse" r="21.166656" xlink:href="#a"/><radialGradient id="e" cx="450.90894" cy="189.57936" gradientTransform="matrix(.00000013 .0585994 -.105479 .00000008 37.609563 -5.149468)" gradientUnits="userSpaceOnUse" r="21.166656" xlink:href="#a"/><linearGradient id="f" gradientTransform="matrix(.01002 0 0 .0468795 7.612545 10.575232)" gradientUnits="userSpaceOnUse" x1="255.32306" x2="255.32304" y1="233.5" y2="254.66666"><stop offset="0" stop-opacity=".27451"/><stop offset="1" stop-opacity="0"/></linearGradient><linearGradient id="g" gradientUnits="userSpaceOnUse" x1="11.907393" x2="11.907393" y1="21.52159190627" y2="6.63735018747"><stop offset="0" stop-color="#42a5f5"/><stop offset="1" stop-color="#64b5f6"/></linearGradient><linearGradient id="h" gradientUnits="userSpaceOnUse" x1="11.907393" x2="11.907393" y1="20.03316734373" y2="2.17207784373"><stop offset="0" stop-color="#bdbdbd"/><stop offset="1" stop-color="#e0e0e0"/></linearGradient><path d="m17.859375 21.523438h1.984375v-.992188h-1.984375zm0 0" fill="url(#b)"/><path d="m4.960938 21.523438h-1.984376v.992187h1.984376zm0 0" fill="url(#c)"/><path d="m4.960938 21.523438h-1.984376v-.992188h1.984376zm0 0" fill="url(#d)"/><path d="m17.859375 21.523438h1.984375v.992187h-1.984375zm0 0" fill="url(#e)"/><path d="m4.960938 21.273438h12.898437v1.242187h-12.898437zm0 0" fill="url(#f)"/><path d="m11.402344 6.628906c-3.847656 0-6.945313 3.273438-6.945313 7.335938v.210937c0 .132813 0 .265625.007813.398438-1.671875.105469-2.988282 1.535156-2.988282 3.289062v.355469c0 1.824219 1.425782 3.292969 3.191407 3.292969h2.773437v.007812h10.417969c2.75 0 4.964844-2.210937 4.964844-4.960937 0-2.707032-2.152344-4.898438-4.84375-4.960938-.929688-2.894531-3.515625-4.96875-6.578125-4.96875zm0 0" fill="url(#g)"/><path d="m4.941406 14.574219c-1.933594 0-3.488281 1.550781-3.488281 3.472656v.15625c.082031-1.851563 1.609375-3.316406 3.488281-3.316406 1.882813 0 3.410156 1.464843 3.488282 3.316406.003906-.050781.003906-.101563.003906-.15625 0-1.921875-1.554688-3.472656-3.492188-3.472656zm0 0" fill="#fafafa" fill-opacity=".392157"/><path d="m11.402344 6.628906c-3.847656 0-6.945313 3.273438-6.945313 7.335938v.210937.082031c.042969-4.023437 3.125-7.25 6.945313-7.25 3.0625 0 5.648437 2.074219 6.578125 4.972657 2.628906.058593 4.742187 2.148437 4.839843 4.769531 0-.0625.003907-.128906.003907-.191406 0-2.707032-2.152344-4.898438-4.84375-4.960938-.929688-2.894531-3.515625-4.96875-6.578125-4.96875zm-6.945313 7.945313c-1.667969.113281-2.980469 1.539062-2.980469 3.289062v.355469c0 .003906.003907.007812.003907.011719.003906-1.75 1.316406-3.167969 2.984375-3.277344-.003906-.125-.007813-.25-.007813-.378906zm0 0" fill="#fff" fill-opacity=".392157"/><path d="m4.457031 13.878906v.085938.210937.019531h.007813c-.003906-.105468-.007813-.210937-.007813-.316406zm18.363281 2.488282c-.101562 2.660156-2.273437 4.773437-4.960937 4.773437h-10.417969v-.007813h-2.773437c-1.761719 0-3.183594-1.460937-3.1875-3.28125 0 .003907-.003907.007813-.003907.011719v.355469c0 1.824219 1.425782 3.292969 3.191407 3.292969h2.773437v.007812h10.417969c2.75 0 4.964844-2.210937 4.964844-4.960937 0-.0625-.003907-.128906-.003907-.191406zm0 0" fill-opacity=".235294"/><path d="m17.984375 11.597656c-2.679687 0-4.835937 2.214844-4.835937 4.960938 0 .0625 0 .125.003906.1875.09375-2.660156 2.214844-4.773438 4.832031-4.773438 2.621094 0 4.738281 2.113282 4.835937 4.773438 0-.0625.003907-.125.003907-.1875 0-2.746094-2.160157-4.960938-4.839844-4.960938zm0 0" fill="#fafafa" fill-opacity=".392157"/><path d="m11.402344 6.558594c-3.890625 0-7.015625 3.308594-7.015625 7.40625v.210937c0 .113281.003906.226563.007812.335938-1.679687.144531-2.988281 1.585937-2.988281 3.351562v.355469c0 1.859375 1.457031 3.363281 3.261719 3.363281h2.746093c.007813.007813.019532.007813.027344.007813h10.417969c2.789063 0 5.035156-2.246094 5.035156-5.03125 0-2.730469-2.15625-4.9375-4.863281-5.027344-.949219-2.898438-3.550781-4.972656-6.628906-4.972656zm0 .140625c3.03125 0 5.59375 2.050781 6.511718 4.921875.007813.027344.035157.046875.066407.046875 2.65625.0625 4.773437 2.21875 4.773437 4.890625 0 2.710937-2.183594 4.890625-4.894531 4.890625h-10.386719c-.011718-.003907-.019531-.007813-.03125-.007813h-2.773437c-1.726563 0-3.121094-1.433594-3.121094-3.222656v-.355469c0-1.71875 1.289063-3.113281 2.921875-3.21875.039062-.003906.070312-.035156.066406-.074219-.007812-.128906-.007812-.261718-.007812-.394531v-.210937c0-4.027344 3.066406-7.265625 6.875-7.265625zm0 0" fill="#212121"/><path d="m6.105469 2.054688c-.625-.011719-1.160157.449218-1.234375 1.070312-.707032 5.238281.664062 10.554688 1.601562 14.667969.109375.484375.507813.855469 1 .933593.492188.074219.980469-.15625 1.238282-.582031l3.070312-5.179687 1.585938 5.808594c.132812.480468.542968.832031 1.039062.886718.496094.058594.976562-.191406 1.210938-.632812 2.003906-3.730469 4.757812-8.707032 5.4375-13.714844.0625-.433594-.113282-.871094-.457032-1.140625-.347656-.269531-.8125-.332031-1.21875-.164063-.402344.167969-.6875.542969-.742187.976563-.449219 3.34375-2.085938 6.96875-3.730469 10.171875l-1.53125-5.605469c-.128906-.472656-.527344-.820312-1.011719-.886719-.488281-.0625-.964843.167969-1.214843.585938l-2.96875 5.011719c-.746094-3.464844-1.371094-7.265625-.894532-10.808594.054688-.347656-.046875-.699219-.273437-.96875-.226563-.265625-.554688-.425781-.90625-.429687zm0 0" fill="url(#h)"/><path d="m6.105469 2.054688c-.625-.011719-1.160157.449218-1.234375 1.070312-.144532 1.074219-.203125 2.148438-.195313 3.21875.007813-.945312.066407-1.894531.195313-2.839844.074218-.621094.609375-1.082031 1.234375-1.070312.589843.011718 1.089843.445312 1.179687 1.03125 0-.003906 0-.007813 0-.011719.054688-.347656-.046875-.699219-.273437-.96875-.226563-.265625-.554688-.425781-.90625-.429687zm13.761719 1.859374c-.621094-.011718-1.152344.453126-1.230469 1.070313-.449219 3.34375-2.085938 6.96875-3.730469 10.171875l-1.53125-5.605469c-.128906-.472656-.527344-.820312-1.011719-.886719-.488281-.0625-.964843.167969-1.214843.585938l-2.96875 5.011719c-.542969-2.527344-1.023438-5.226563-1.058594-7.878907-.003906.164063-.003906.328126 0 .492188 0-.035156 0-.074219 0-.113281.035156 2.652343.515625 5.355469 1.058594 7.878906l2.96875-5.011719c.25-.417968.726562-.648437 1.214843-.585937.484375.066406.882813.417969 1.011719.886719l1.53125 5.605468c1.644531-3.203125 3.28125-6.828125 3.730469-10.171875.078125-.617187.609375-1.078125 1.230469-1.070312.59375.011719 1.09375.445312 1.183593 1.03125 0-.003907.003907-.007813.003907-.011719.050781-.347656-.050782-.699219-.277344-.96875-.226563-.265625-.558594-.421875-.910156-.429688zm0 0" fill="#fff" fill-opacity=".784314"/><path d="m5.0625 10.949219c-.023438.054687-.046875.113281-.070312.171875.367187 2.652344.984374 5.160156 1.480468 7.332031.109375.488281.507813.855469 1 .933594.492188.078125.980469-.152344 1.238282-.582031l3.070312-5.175782 1.585938 5.804688c.132812.480468.542968.832031 1.039062.890625.496094.054687.976562-.195313 1.210938-.636719 1.207031-2.246094 2.6875-4.945312 3.824218-7.835938-.078125-.027343-.160156-.050781-.238281-.070312-1.097656 2.664062-2.460937 5.152344-3.585937 7.246094-.234376.441406-.714844.691406-1.210938.632812-.496094-.054687-.90625-.40625-1.039062-.886718l-1.585938-5.808594-3.070312 5.179687c-.257813.425781-.746094.65625-1.238282.582031-.492187-.078124-.890625-.449218-1-.933593-.464844-2.039063-1.035156-4.371094-1.410156-6.84375zm0 0" fill-opacity=".235294"/><path d="m130.237563-171.170852c-13.33206-.249976-24.747637 9.582418-26.330819 22.831153-15.081893 111.739329 14.165314 225.145166 34.163404 312.886787 2.333111 10.332347 10.832299 18.248258 21.331297 19.914765 10.498997 1.583182 20.914669-3.333015 26.414144-12.415481l65.493745-110.489449 33.830103 123.904835c2.833063 10.249021 11.582227 17.748305 22.16455 18.91486 10.582323 1.249881 20.831344-4.082943 25.830867-13.498711 42.745918-79.575734 101.490308-185.732263 115.988923-292.555395 1.333207-9.249117-2.416435-18.581559-9.749069-24.33101-7.415958-5.749451-17.331678-7.082657-25.997517-3.499666-8.582514 3.582991-14.665266 11.582227-15.831821 20.831344-9.582419 71.326522-44.495751 148.652471-79.575735 216.979279l-32.663547-119.571914c-2.749737-10.082371-11.248926-17.498329-21.581272-18.914861-10.415672-1.333206-20.581368 3.582991-25.914192 12.498807l-63.327286 106.906457c-15.915147-73.909608-29.247207-154.985199-19.081511-230.561315 1.166555-7.415959-.999905-14.915243-5.832777-20.664694-4.832872-5.666125-11.832203-9.082466-19.331487-9.165791zm0 0" fill="none" stroke="#212121" stroke-linecap="round" stroke-linejoin="round" stroke-width="3" transform="matrix(.0468795 0 0 .0468795 0 10.079087)"/></svg>

<?xml version="1.0" encoding="UTF-8"?>
<svg xmlns="http://www.w3.org/2000/svg" xmlns:xlink="http://www.w3.org/1999/xlink" width="24pt" height="24pt" viewBox="0 0 24 24" version="1.1">
<defs>
<radialGradient id="radial0" gradientUnits="userSpaceOnUse" cx="450.90894" cy="189.57936" fx="450.90894" fy="189.57936" r="21.166656" gradientTransform="matrix(0.000000130628,-0.0585994,-0.105479,-0.0000000761539,37.609564,48.192643)">
<stop offset="0" style="stop-color:rgb(0%,0%,0%);stop-opacity:0.313725;"/>
<stop offset="0.222222" style="stop-color:rgb(0%,0%,0%);stop-opacity:0.27451;"/>
<stop offset="1" style="stop-color:rgb(0%,0%,0%);stop-opacity:0;"/>
</radialGradient>
<radialGradient id="radial1" gradientUnits="userSpaceOnUse" cx="450.90894" cy="189.57936" fx="450.90894" fy="189.57936" r="21.166656" gradientTransform="matrix(-0.000000130628,0.0585994,0.105479,0.0000000761539,-14.787071,-5.149467)">
<stop offset="0" style="stop-color:rgb(0%,0%,0%);stop-opacity:0.313725;"/>
<stop offset="0.222222" style="stop-color:rgb(0%,0%,0%);stop-opacity:0.27451;"/>
<stop offset="1" style="stop-color:rgb(0%,0%,0%);stop-opacity:0;"/>
</radialGradient>
<radialGradient id="radial2" gradientUnits="userSpaceOnUse" cx="450.90894" cy="189.57936" fx="450.90894" fy="189.57936" r="21.166656" gradientTransform="matrix(-0.000000130628,-0.0585994,0.105479,-0.0000000761539,-14.787071,48.192643)">
<stop offset="0" style="stop-color:rgb(0%,0%,0%);stop-opacity:0.313725;"/>
<stop offset="0.222222" style="stop-color:rgb(0%,0%,0%);stop-opacity:0.27451;"/>
<stop offset="1" style="stop-color:rgb(0%,0%,0%);stop-opacity:0;"/>
</radialGradient>
<radialGradient id="radial3" gradientUnits="userSpaceOnUse" cx="450.90894" cy="189.57936" fx="450.90894" fy="189.57936" r="21.166656" gradientTransform="matrix(0.000000130628,0.0585994,-0.105479,0.0000000761539,37.609563,-5.149468)">
<stop offset="0" style="stop-color:rgb(0%,0%,0%);stop-opacity:0.313725;"/>
<stop offset="0.222222" style="stop-color:rgb(0%,0%,0%);stop-opacity:0.27451;"/>
<stop offset="1" style="stop-color:rgb(0%,0%,0%);stop-opacity:0;"/>
</radialGradient>
<linearGradient id="linear0" gradientUnits="userSpaceOnUse" x1="255.32306" y1="233.5" x2="255.32304" y2="254.66666" gradientTransform="matrix(0.01002,0,0,0.0468795,7.612545,10.575232)">
<stop offset="0" style="stop-color:rgb(0%,0%,0%);stop-opacity:0.27451;"/>
<stop offset="1" style="stop-color:rgb(0%,0%,0%);stop-opacity:0;"/>
</linearGradient>
<linearGradient id="linear1" gradientUnits="userSpaceOnUse" x1="254" y1="191.16667" x2="254" y2="-126.33334" gradientTransform="matrix(0.0468795,0,0,0.0468795,0,12.559794)">
<stop offset="0" style="stop-color:rgb(25.882353%,64.705882%,96.078431%);stop-opacity:1;"/>
<stop offset="1" style="stop-color:rgb(39.215686%,70.980392%,96.470588%);stop-opacity:1;"/>
</linearGradient>
<linearGradient id="linear2" gradientUnits="userSpaceOnUse" x1="254" y1="212.33333" x2="254" y2="-168.66667" gradientTransform="matrix(0.0468795,0,0,0.0468795,0,10.079087)">
<stop offset="0" style="stop-color:rgb(74.117647%,74.117647%,74.117647%);stop-opacity:1;"/>
<stop offset="1" style="stop-color:rgb(87.843137%,87.843137%,87.843137%);stop-opacity:1;"/>
</linearGradient>
</defs>
<g id="surface1">
<path style=" stroke:none;fill-rule:nonzero;fill:url(#radial0);" d="M 17.859375 21.523438 L 19.84375 21.523438 L 19.84375 20.53125 L 17.859375 20.53125 Z M 17.859375 21.523438 "/>
<path style=" stroke:none;fill-rule:nonzero;fill:url(#radial1);" d="M 4.960938 21.523438 L 2.976562 21.523438 L 2.976562 22.515625 L 4.960938 22.515625 Z M 4.960938 21.523438 "/>
<path style=" stroke:none;fill-rule:nonzero;fill:url(#radial2);" d="M 4.960938 21.523438 L 2.976562 21.523438 L 2.976562 20.53125 L 4.960938 20.53125 Z M 4.960938 21.523438 "/>
<path style=" stroke:none;fill-rule:nonzero;fill:url(#radial3);" d="M 17.859375 21.523438 L 19.84375 21.523438 L 19.84375 22.515625 L 17.859375 22.515625 Z M 17.859375 21.523438 "/>
<path style=" stroke:none;fill-rule:nonzero;fill:url(#linear0);" d="M 4.960938 21.273438 L 17.859375 21.273438 L 17.859375 22.515625 L 4.960938 22.515625 Z M 4.960938 21.273438 "/>
<path style=" stroke:none;fill-rule:nonzero;fill:url(#linear1);" d="M 11.402344 6.628906 C 7.554688 6.628906 4.457031 9.902344 4.457031 13.964844 L 4.457031 14.175781 C 4.457031 14.308594 4.457031 14.441406 4.464844 14.574219 C 2.792969 14.679688 1.476562 16.109375 1.476562 17.863281 L 1.476562 18.21875 C 1.476562 20.042969 2.902344 21.511719 4.667969 21.511719 L 7.441406 21.511719 L 7.441406 21.519531 L 17.859375 21.519531 C 20.609375 21.519531 22.824219 19.308594 22.824219 16.558594 C 22.824219 13.851562 20.671875 11.660156 17.980469 11.597656 C 17.050781 8.703125 14.464844 6.628906 11.402344 6.628906 Z M 11.402344 6.628906 "/>
<path style=" stroke:none;fill-rule:nonzero;fill:rgb(98.039216%,98.039216%,98.039216%);fill-opacity:0.392157;" d="M 4.941406 14.574219 C 3.007812 14.574219 1.453125 16.125 1.453125 18.046875 C 1.453125 18.101562 1.453125 18.152344 1.453125 18.203125 C 1.535156 16.351562 3.0625 14.886719 4.941406 14.886719 C 6.824219 14.886719 8.351562 16.351562 8.429688 18.203125 C 8.433594 18.152344 8.433594 18.101562 8.433594 18.046875 C 8.433594 16.125 6.878906 14.574219 4.941406 14.574219 Z M 4.941406 14.574219 "/>
<path style=" stroke:none;fill-rule:nonzero;fill:rgb(100%,100%,100%);fill-opacity:0.392157;" d="M 11.402344 6.628906 C 7.554688 6.628906 4.457031 9.902344 4.457031 13.964844 L 4.457031 14.175781 C 4.457031 14.203125 4.457031 14.230469 4.457031 14.257812 C 4.5 10.234375 7.582031 7.007812 11.402344 7.007812 C 14.464844 7.007812 17.050781 9.082031 17.980469 11.980469 C 20.609375 12.039062 22.722656 14.128906 22.820312 16.75 C 22.820312 16.6875 22.824219 16.621094 22.824219 16.558594 C 22.824219 13.851562 20.671875 11.660156 17.980469 11.597656 C 17.050781 8.703125 14.464844 6.628906 11.402344 6.628906 Z M 4.457031 14.574219 C 2.789062 14.6875 1.476562 16.113281 1.476562 17.863281 L 1.476562 18.21875 C 1.476562 18.222656 1.480469 18.226562 1.480469 18.230469 C 1.484375 16.480469 2.796875 15.0625 4.464844 14.953125 C 4.460938 14.828125 4.457031 14.703125 4.457031 14.574219 Z M 4.457031 14.574219 "/>
<path style=" stroke:none;fill-rule:nonzero;fill:rgb(0%,0%,0%);fill-opacity:0.235294;" d="M 4.457031 13.878906 C 4.457031 13.90625 4.457031 13.9375 4.457031 13.964844 L 4.457031 14.175781 C 4.457031 14.183594 4.457031 14.1875 4.457031 14.195312 C 4.457031 14.195312 4.460938 14.195312 4.464844 14.195312 C 4.460938 14.089844 4.457031 13.984375 4.457031 13.878906 Z M 22.820312 16.367188 C 22.71875 19.027344 20.546875 21.140625 17.859375 21.140625 L 7.441406 21.140625 L 7.441406 21.132812 L 4.667969 21.132812 C 2.90625 21.132812 1.484375 19.671875 1.480469 17.851562 C 1.480469 17.855469 1.476562 17.859375 1.476562 17.863281 L 1.476562 18.21875 C 1.476562 20.042969 2.902344 21.511719 4.667969 21.511719 L 7.441406 21.511719 L 7.441406 21.519531 L 17.859375 21.519531 C 20.609375 21.519531 22.824219 19.308594 22.824219 16.558594 C 22.824219 16.496094 22.820312 16.429688 22.820312 16.367188 Z M 22.820312 16.367188 "/>
<path style=" stroke:none;fill-rule:nonzero;fill:rgb(98.039216%,98.039216%,98.039216%);fill-opacity:0.392157;" d="M 17.984375 11.597656 C 15.304688 11.597656 13.148438 13.8125 13.148438 16.558594 C 13.148438 16.621094 13.148438 16.683594 13.152344 16.746094 C 13.246094 14.085938 15.367188 11.972656 17.984375 11.972656 C 20.605469 11.972656 22.722656 14.085938 22.820312 16.746094 C 22.820312 16.683594 22.824219 16.621094 22.824219 16.558594 C 22.824219 13.8125 20.664062 11.597656 17.984375 11.597656 Z M 17.984375 11.597656 "/>
<path style=" stroke:none;fill-rule:nonzero;fill:rgb(12.941176%,12.941176%,12.941176%);fill-opacity:1;" d="M 11.402344 6.558594 C 7.511719 6.558594 4.386719 9.867188 4.386719 13.964844 L 4.386719 14.175781 C 4.386719 14.289062 4.390625 14.402344 4.394531 14.511719 C 2.714844 14.65625 1.40625 16.097656 1.40625 17.863281 L 1.40625 18.21875 C 1.40625 20.078125 2.863281 21.582031 4.667969 21.582031 L 7.414062 21.582031 C 7.421875 21.589844 7.433594 21.589844 7.441406 21.589844 L 17.859375 21.589844 C 20.648438 21.589844 22.894531 19.34375 22.894531 16.558594 C 22.894531 13.828125 20.738281 11.621094 18.03125 11.53125 C 17.082031 8.632812 14.480469 6.558594 11.402344 6.558594 Z M 11.402344 6.699219 C 14.433594 6.699219 16.996094 8.75 17.914062 11.621094 C 17.921875 11.648438 17.949219 11.667969 17.980469 11.667969 C 20.636719 11.730469 22.753906 13.886719 22.753906 16.558594 C 22.753906 19.269531 20.570312 21.449219 17.859375 21.449219 L 7.472656 21.449219 C 7.460938 21.445312 7.453125 21.441406 7.441406 21.441406 L 4.667969 21.441406 C 2.941406 21.441406 1.546875 20.007812 1.546875 18.21875 L 1.546875 17.863281 C 1.546875 16.144531 2.835938 14.75 4.46875 14.644531 C 4.507812 14.640625 4.539062 14.609375 4.535156 14.570312 C 4.527344 14.441406 4.527344 14.308594 4.527344 14.175781 L 4.527344 13.964844 C 4.527344 9.9375 7.59375 6.699219 11.402344 6.699219 Z M 11.402344 6.699219 "/>
<path style=" stroke:none;fill-rule:nonzero;fill:url(#linear2);" d="M 6.105469 2.054688 C 5.480469 2.042969 4.945312 2.503906 4.871094 3.125 C 4.164062 8.363281 5.535156 13.679688 6.472656 17.792969 C 6.582031 18.277344 6.980469 18.648438 7.472656 18.726562 C 7.964844 18.800781 8.453125 18.570312 8.710938 18.144531 L 11.78125 12.964844 L 13.367188 18.773438 C 13.5 19.253906 13.910156 19.605469 14.40625 19.660156 C 14.902344 19.71875 15.382812 19.46875 15.617188 19.027344 C 17.621094 15.296875 20.375 10.320312 21.054688 5.3125 C 21.117188 4.878906 20.941406 4.441406 20.597656 4.171875 C 20.25 3.902344 19.785156 3.839844 19.378906 4.007812 C 18.976562 4.175781 18.691406 4.550781 18.636719 4.984375 C 18.1875 8.328125 16.550781 11.953125 14.90625 15.15625 L 13.375 9.550781 C 13.246094 9.078125 12.847656 8.730469 12.363281 8.664062 C 11.875 8.601562 11.398438 8.832031 11.148438 9.25 L 8.179688 14.261719 C 7.433594 10.796875 6.808594 6.996094 7.285156 3.453125 C 7.339844 3.105469 7.238281 2.753906 7.011719 2.484375 C 6.785156 2.21875 6.457031 2.058594 6.105469 2.054688 Z M 6.105469 2.054688 "/>
<path style=" stroke:none;fill-rule:nonzero;fill:rgb(100%,100%,100%);fill-opacity:0.784314;" d="M 6.105469 2.054688 C 5.480469 2.042969 4.945312 2.503906 4.871094 3.125 C 4.726562 4.199219 4.667969 5.273438 4.675781 6.34375 C 4.683594 5.398438 4.742188 4.449219 4.871094 3.503906 C 4.945312 2.882812 5.480469 2.421875 6.105469 2.433594 C 6.695312 2.445312 7.195312 2.878906 7.285156 3.464844 C 7.285156 3.460938 7.285156 3.457031 7.285156 3.453125 C 7.339844 3.105469 7.238281 2.753906 7.011719 2.484375 C 6.785156 2.21875 6.457031 2.058594 6.105469 2.054688 Z M 19.867188 3.914062 C 19.246094 3.902344 18.714844 4.367188 18.636719 4.984375 C 18.1875 8.328125 16.550781 11.953125 14.90625 15.15625 L 13.375 9.550781 C 13.246094 9.078125 12.847656 8.730469 12.363281 8.664062 C 11.875 8.601562 11.398438 8.832031 11.148438 9.25 L 8.179688 14.261719 C 7.636719 11.734375 7.15625 9.035156 7.121094 6.382812 C 7.117188 6.546875 7.117188 6.710938 7.121094 6.875 C 7.121094 6.839844 7.121094 6.800781 7.121094 6.761719 C 7.15625 9.414062 7.636719 12.117188 8.179688 14.640625 L 11.148438 9.628906 C 11.398438 9.210938 11.875 8.980469 12.363281 9.042969 C 12.847656 9.109375 13.246094 9.460938 13.375 9.929688 L 14.90625 15.535156 C 16.550781 12.332031 18.1875 8.707031 18.636719 5.363281 C 18.714844 4.746094 19.246094 4.285156 19.867188 4.292969 C 20.460938 4.304688 20.960938 4.738281 21.050781 5.324219 C 21.050781 5.320312 21.054688 5.316406 21.054688 5.3125 C 21.105469 4.964844 21.003906 4.613281 20.777344 4.34375 C 20.550781 4.078125 20.21875 3.921875 19.867188 3.914062 Z M 19.867188 3.914062 "/>
<path style=" stroke:none;fill-rule:nonzero;fill:rgb(0%,0%,0%);fill-opacity:0.235294;" d="M 5.0625 10.949219 C 5.039062 11.003906 5.015625 11.0625 4.992188 11.121094 C 5.359375 13.773438 5.976562 16.28125 6.472656 18.453125 C 6.582031 18.941406 6.980469 19.308594 7.472656 19.386719 C 7.964844 19.464844 8.453125 19.234375 8.710938 18.804688 L 11.78125 13.628906 L 13.367188 19.433594 C 13.5 19.914062 13.910156 20.265625 14.40625 20.324219 C 14.902344 20.378906 15.382812 20.128906 15.617188 19.6875 C 16.824219 17.441406 18.304688 14.742188 19.441406 11.851562 C 19.363281 11.824219 19.28125 11.800781 19.203125 11.78125 C 18.105469 14.445312 16.742188 16.933594 15.617188 19.027344 C 15.382812 19.46875 14.902344 19.71875 14.40625 19.660156 C 13.910156 19.605469 13.5 19.253906 13.367188 18.773438 L 11.78125 12.964844 L 8.710938 18.144531 C 8.453125 18.570312 7.964844 18.800781 7.472656 18.726562 C 6.980469 18.648438 6.582031 18.277344 6.472656 17.792969 C 6.007812 15.753906 5.4375 13.421875 5.0625 10.949219 Z M 5.0625 10.949219 "/>
<path style="fill:none;stroke-width:3;stroke-linecap:round;stroke-linejoin:round;stroke:rgb(12.941176%,12.941176%,12.941176%);stroke-opacity:1;stroke-miterlimit:4;" d="M 130.237563 -171.170852 C 116.905503 -171.420828 105.489926 -161.588434 103.906744 -148.339699 C 88.824851 -36.60037 118.072058 76.805467 138.070148 164.547088 C 140.403259 174.879435 148.902447 182.795346 159.401445 184.461853 C 169.900442 186.045035 180.316114 181.128838 185.815589 172.046372 L 251.309334 61.556923 L 285.139437 185.461758 C 287.9725 195.710779 296.721664 203.210063 307.303987 204.376618 C 317.88631 205.626499 328.135331 200.293675 333.134854 190.877907 C 375.880772 111.302173 434.625162 5.145644 449.123777 -101.677488 C 450.456984 -110.926605 446.707342 -120.259047 439.374708 -126.008498 C 431.95875 -131.757949 422.04303 -133.091155 413.377191 -129.508164 C 404.794677 -125.925173 398.711925 -117.925937 397.54537 -108.67682 C 387.962951 -37.350298 353.049619 39.975651 317.969635 108.302459 L 285.306088 -11.269455 C 282.556351 -21.351826 274.057162 -28.767784 263.724816 -30.184316 C 253.309144 -31.517522 243.143448 -26.601325 237.810624 -17.685509 L 174.483338 89.220948 C 158.568191 15.31134 145.236131 -65.764251 155.401827 -141.340367 C 156.568382 -148.756326 154.401922 -156.25561 149.56905 -162.005061 C 144.736178 -167.671186 137.736847 -171.087527 130.237563 -171.170852 Z M 130.237563 -171.170852 " transform="matrix(0.0468795,0,0,0.0468795,0,10.079087)"/>
</g>
</svg>
